**kern	**kern	**dynam
*part1	*part1	*part1
*staff2	*staff1	*
*I"Piano	*	*
*clefF4	*clefG2	*
*k[f#c#g#d#a#]	*k[f#c#g#d#a#]	*
=1	=1	=1
*^	*	*
(4BB	2.BB	4r	.
4F#	.	(8dd#L 8bb	.
.	.	8bJ)	.
4B)	.	(8bL 8ff#	.
.	.	8f#J)	.
=	=	=	=
!	!	!LO:TX:b:i:t=dim.	!
4BBB	2.BBB	4r	.
4FF#	.	(8bL 8ff#	.
.	.	8f#J)	.
4BB	.	(8f#L 8dd#	.
.	.	8d#J)	.
=	=	=	=
4BBB	2.BBB	4r	.
4FF#	.	(8f#L 8dd#	.
.	.	8d#J)	.
4BB	.	(8d#L 8b	.
.	.	8BJ)	.
=	=	=	=
4BBB	2.BBB	4r	.
4FF#	.	(8d#L 8b	.
.	.	8BJ)	.
4BB	.	(8BL 8f#	.
.	.	8F#J<)	.
=	=	=	=
4BBB	2.BBB	4r	.
4FF#	.	(8BL 8f#	.
.	.	8F#J<)	.
4BB	.	8F#L< 8d#<	.
.	.	8D#J<	.
=	=	=	=
(4BBB	2.BBB	4r	p
4FF#	.	8D#L< 8B<	.
.	.	8BBJ<	.
4GGn)	.	4r	.
=	=	=	=
(4BBB	2.BBB	4r	.
4FF#	.	8D#L< 8B<	.
.	.	8BBJ<	.
4GGn)	.	4r	.
=	=	=	=
(4BBB	2.BBB	4r	.
4FF#	.	8D#L< 8B<	.
.	.	8BBJ<	.
4GGn)	.	4r	.
*v	*v	*	*
=	=	=
*-	*-	*-
!!!system-decoration: {(s1,s2)}
!!!RDF**kern: < = below
